apps/www/public/images/logos/publicity/mobbin.svg

<svg width="136" height="61" viewBox="0 0 136 61" fill="none" xmlns="http://www.w3.org/2000/svg">
<path d="M46.0462 29.7682H37.0675V38.6455H46.0462V29.7682ZM10.1335 38.6455V30.8297L19.0631 22H26.9674V29.8158L18.0379 38.6455H10.1335Z" fill="#7E7E7E"/>
<path d="M23.6003 38.6455V30.8297L32.5299 22H40.4342V29.8158L31.5047 38.6455H23.6003ZM64.7435 33.6942L60.1493 23.2522H56.4381V37.1852H59.2096L59.2157 27.7957L63.4073 37.1852H66.0789L70.2766 27.7979V37.1852H73.0481V23.2522H69.3354L64.7435 33.6942ZM79.7419 26.747C75.122 26.747 74.1527 29.604 74.1527 31.9994C74.1527 35.6592 75.9989 37.4372 79.7963 37.4372C83.5945 37.4372 85.4043 35.6743 85.4043 32.0486C85.4043 28.4229 83.4992 26.7447 79.7441 26.7447L79.7419 26.747ZM77.0332 31.9502C77.0332 30.1192 77.4508 29.1893 79.7419 29.1893C81.874 29.1893 82.5239 29.8658 82.5239 32.0872C82.5239 34.3078 81.8823 35.0001 79.7782 35.0001C77.6748 35.0001 77.0324 34.2889 77.0324 31.9517V31.9502H77.0332ZM92.6769 26.7644H92.6232C90.9594 26.772 89.6603 27.944 89.3183 28.4759V23.2522H86.5105V37.1852H89.3183V37.0907L89.3327 35.762C89.7889 36.4982 91.0101 37.4395 92.6066 37.4395C96.0968 37.4395 97.5873 35.8733 97.5873 32.2037C97.5873 28.5341 96.0726 26.7659 92.6769 26.7659V26.7644ZM94.7614 31.9994C94.7614 34.7716 93.4676 34.9964 91.9052 34.9964C90.342 34.9964 89.0853 34.7754 89.0853 32.066C89.0853 30.0057 89.8858 29.203 91.9407 29.203C93.9965 29.203 94.7614 29.9066 94.7614 31.9979V31.9994ZM104.866 26.7644H104.812C103.148 26.772 101.849 27.944 101.507 28.4759V23.2522H98.6996V37.1852H101.507V37.0907L101.522 35.762C101.978 36.496 103.198 37.4372 104.796 37.4372C108.286 37.4372 109.776 35.871 109.776 32.2014C109.776 28.5326 108.262 26.7644 104.866 26.7644ZM106.95 31.9994C106.95 34.7716 105.657 34.9964 104.094 34.9964C102.531 34.9964 101.274 34.7754 101.274 32.066C101.274 30.0057 102.075 29.203 104.131 29.203C106.186 29.203 106.95 29.9066 106.95 31.9979V31.9994ZM113.773 26.9838H110.965V37.1852H113.773V26.9838ZM121.297 26.7606C119.739 26.7606 118.479 27.7276 118.075 28.4759V26.9838H115.268V37.1852H118.075V31.2405C118.075 29.9074 118.476 29.2711 120.752 29.2711C122.476 29.2711 123.088 29.803 123.088 31.3064V37.1837H125.895V31.9139C125.895 28.0802 124.735 26.7795 121.297 26.7583V26.7606ZM113.773 23.2522H110.965V25.895H113.773V23.2522Z" fill="#7E7E7E"/>
</svg>

<svg xmlns="http://www.w3.org/2000/svg" width="136" height="61" fill="none" viewBox="0 0 136 61"><path fill="#7e7e7e" d="M46.046 29.768h-8.978v8.877h8.978zm-35.912 8.877V30.83l8.93-8.83h7.903v7.816l-8.93 8.83z"/><path fill="#7e7e7e" d="M23.6 38.646V30.83L32.53 22h7.904v7.816l-8.93 8.83zm41.143-4.952L60.15 23.252h-3.71v13.933h2.77l.007-9.39 4.191 9.39h2.672l4.198-9.387v9.387h2.771V23.252h-3.713zm14.999-6.947c-4.62 0-5.59 2.857-5.59 5.252 0 3.66 1.847 5.438 5.644 5.438s5.608-1.763 5.608-5.388-1.905-5.304-5.66-5.304zm-2.709 5.203c0-1.83.418-2.76 2.709-2.76 2.132 0 2.782.676 2.782 2.897S81.882 35 79.778 35s-2.746-.711-2.746-3.048zm15.644-5.186h-.054c-1.664.008-2.963 1.18-3.305 1.712v-5.224H86.51v13.933h2.808v-.094l.015-1.329c.456.736 1.677 1.678 3.274 1.678 3.49 0 4.98-1.567 4.98-5.236 0-3.67-1.514-5.438-4.91-5.438zM94.76 32c0 2.773-1.293 2.997-2.856 2.997s-2.82-.22-2.82-2.93c0-2.06.8-2.863 2.856-2.863s2.82.704 2.82 2.795zm10.105-5.235h-.054c-1.664.008-2.963 1.18-3.305 1.712v-5.224H98.7v13.933h2.807v-.094l.015-1.329c.456.734 1.676 1.675 3.274 1.675 3.49 0 4.98-1.566 4.98-5.236 0-3.668-1.514-5.437-4.91-5.437M106.95 32c0 2.773-1.293 2.997-2.856 2.997s-2.82-.22-2.82-2.93c0-2.06.801-2.863 2.857-2.863s2.819.704 2.819 2.795zm6.823-5.015h-2.808v10.201h2.808zm7.524-.223c-1.558 0-2.818.967-3.222 1.715v-1.492h-2.807v10.201h2.807V31.24c0-1.333.401-1.969 2.677-1.969 1.724 0 2.336.532 2.336 2.035v5.878h2.807v-5.27c0-3.834-1.16-5.135-4.598-5.156zm-7.524-3.509h-2.808v2.643h2.808z"/></svg>
